X:85 
T:Bright Love Of My Heart 2 
S:J.O'Neill
B:ONMI.0379
C:file ID: onmi.airs/085bright_L2
Q:120
Z:Brennan/Black
M:C
L:1/8
K:D
"moderate"
F>G|A>B A/G/F/D/ Adcd|FGAB =c2 d/^c/B/c/|A>BAG FDGF|D2G2 G2F>G|
A>B A/G/F/D/ Adcd|FGAB =c2 d/^c/B/c/|A>BAG FDGF|D2D2D2||
(3ABc|d2d>e f2ed|e2 d/c/A/G/ A2 (3ABc|d2dd e2 d/c/A/B/|=c2d>d d3A|
d2d2 de=cA|AGFD cdcA|A>BAG FDGF|D2D2 D4|]
%
P:simplified version
FG|ABAD Adcd|FGAB =c2dc|ABAG FDGF|D2G2 G2FG|
ABAd Adcd|FGAB =c2dc|ABAG FDGF|D2D2D2||
(3ABc|d2de f2ed|e2dG A2 (3ABc|d2d2 e2dB|=c2d2 d3A|
d2d2 de=cA|AGFD cdcA|ABAG FDGF|D2D2 D4|]

